build/category/HugeProcentSolid.svg

<svg xmlns="http://www.w3.org/2000/svg" fill="none" viewBox="0 0 24 24" focusable="false"><path d="M0 0H24V24H0z"/><path fill="#74767B" fill-rule="evenodd" d="M7.1 3L16.9 3C17.4124 3 17.7511 3.53024 17.5341 3.99254L15.6592 7.98699C16.7949 9.78024 19 13.5766 19 16.0197C19 19.6304 16 21 12 21C8 21 5 19.6304 5 16.0197C5 13.5766 7.2051 9.78024 8.34083 7.98699L6.46589 3.99254C6.24889 3.53024 6.58765 3 7.1 3ZM15.0078 11.9531C15.2376 12.2278 15.2004 12.6361 14.9246 12.865L9.41612 17.4421C9.14034 17.6711 8.73047 17.6339 8.50066 17.3593C8.27084 17.0846 8.3081 16.6763 8.58388 16.4474L14.0923 11.8702C14.3681 11.6413 14.778 11.6784 15.0078 11.9531ZM13.9988 18C14.5504 18 14.9976 17.5546 14.9976 17.0052C14.9976 16.4557 14.5504 16.0103 13.9988 16.0103C13.4472 16.0103 13 16.4557 13 17.0052C13 17.5546 13.4472 18 13.9988 18ZM10.9976 11.9987C10.9976 12.5482 10.5504 12.9936 9.99878 12.9936C9.44717 12.9936 9 12.5482 9 11.9987C9 11.4493 9.44717 11.0039 9.99878 11.0039C10.5504 11.0039 10.9976 11.4493 10.9976 11.9987Z"/></svg>

<svg xmlns="http://www.w3.org/2000/svg" fill="none" viewBox="0 0 24 24" focusable="false"><path fill="#74767B" fill-rule="evenodd" d="M7.1 3h9.79c.52 0 .86.53.64.99l-1.88 3.99c1.14 1.8 3.35 5.59 3.35 8.03 0 3.62-3 4.99-7 4.99s-7-1.37-7-4.99c0-2.44 2.2-6.23 3.34-8.03L6.46 3.99c-.22-.46.12-.99.64-.99m7.9 8.95c.23.27.2.68-.08.91l-5.51 4.58a.64.64 0 0 1-.91-.09.64.64 0 0 1 .08-.91l5.51-4.57c.27-.23.68-.2.91.08M13.99 18c.56 0 1-.45 1-1s-.44-.99-1-.99c-.55 0-.99.44-.99.99s.44 1 .99 1m-3-6.01a.994.994 0 1 1-1.99 0c0-.55.44-.99.99-.99.56 0 1 .44 1 .99"/></svg>
